X: 1
T: THE HEADLIGHT
N: "Clog Dance."
R: hornpipe
Z: 2007 John Chambers <jc:trillian.mit.edu>
B: Kerr 2nd p.43 #390 c.1880
M: C|
L: 1/8
K: Gm
G,>A, \
| B,4 A,4 | (3G,B,D (3GBd g2 z2 | (3cde (3ABc (3^FGA D2 | (3cde (3ABc (3^FGA D2 |
| B,4 A,4 | (3G,B,D (3GBd g2 z2 | d>^cd>e (d<A) ze | d>cB>A G2 :|
|: F2 \
| B>AB>c d>cB2 | c>=Bc>d e>dc2 | f>=ef>g a>gf>e | d>cB>G (_G2F2) |
| B>AB>c d>cB2 | c>=Bc>d e>dc2 | f>=ef>g a>gf2  | (3agf (3edc B2 :|
